!!! OTL: Berkowitz524
!!! Chapter: 1
!!! Section: IV
!!! Page: 131
!!! Mode: 
!!! Encoder: DJB
**kern
*staff1
*I"Piano
=1-
*clefG2
*k[]
*C:
*M6/8
8g/L
8a/
8b/J
8cc\L
8dd\
8ee\J
=2
*M5/8
4ff\
4dd\
8gg\
=3
8ee\L
8cc\
8a\J
4g/
=4
*M3/4
4dd\
4e/
4f#/
=5
4g#/
4a/
4b\
=6
*M5/8
4cc\
4a/
8dd\
=7
8b/L
8g/
8e/J
4d/
=8
4b\
4g/
8cc\
=9
8a/L
8f/
8d/J
[4c/
=10
*M6/8
8c/L]
8d/
8e/J
8f/L
8g/
8a/J
=11
!!linebreak:original
8b/L
8cc/
8c/J
8d/L
8e/
8f/J
=12
*M3/4
4g/
4a/
4b\
=13
2.r
=14
*M5/8
8cc/L
8g/
8e/J
4c/
==
*-
